file/leonard-bernstein.svg

<svg clip-rule="evenodd" fill-rule="evenodd" stroke-linejoin="round" stroke-miterlimit="1.41421" viewBox="0 0 560 400" xmlns="http://www.w3.org/2000/svg"><g fill="#e52e26" fill-rule="nonzero" transform="matrix(2.02384 0 0 2.02384 -173.139 -140.004)"><path d="m202.84 184.2c-1.98 3.87-4.14 8.19-4.23 13.41 0 .18-.9 13.59 12.51 18.54 4.14 1.53 9.36 1.71 14.85.54 0 0 .9-.18 1.44-.36-2.61-9.81-5.85-22.5-9.09-34.65-3.69 2.34-6.12 6.03-7.2 10.71-.36 1.53-.72 6.12 1.35 9.36l.18.36-2.52.63-.09-.18c-2.07-3.78-1.8-8.64-1.35-10.62 1.17-5.58 4.41-10.08 8.91-12.69l-3.51-13.14c-4.5 6.93-9.99 15.39-11.25 17.82z"/><path d="m248.47 164.13c11.34-5.04 19.17-16.38 19.17-29.52 0-17.82-14.49-32.31-32.31-32.31h-60.84v131.4h57.42c-.09-.27-.45-1.8-1.08-4.23-.72-2.61-1.62-6.3-2.79-10.71-2.79.72-5.67 1.08-8.55 1.08-3.24 0-6.3-.45-9.18-1.44-5.4-1.8-12.33-6.03-15.03-16.47v-.09c-1.89-7.47-1.44-14.85 1.26-21.51 2.52-6.12 9.27-16.74 13.32-23.04.54-.81.99-1.53 1.44-2.25-1.89-7.11-3.87-14.58-3.96-14.58-2.07-7.2-3.33-17.46-.09-22.95 1.08-1.8 2.61-2.88 4.41-3.33.36-.09.81-.09 1.26-.09.99 0 1.98.18 2.97.54 4.14 1.53 9.45 5.4 11.61 15.12 1.53 7.2-.99 14.85-3.42 20.07-2.61 5.58-5.58 9.63-5.67 9.63 0 0-.99 1.53-2.52 3.87l.09.45 3.78 14.31c.99-.45 2.07-.72 3.06-.99 1.62-.36 3.24-.54 4.95-.54 6.39 0 12.51 2.79 16.02 7.2 1.35 1.71 2.34 3.6 2.97 5.58 1.71 4.23 1.53 9.09-.45 13.95-2.25 5.4-5.94 9.54-10.98 12.33-1.44.9-3.24 1.53-5.22 2.25 1.98 7.47 4.14 15.75 4.14 15.84h5.13c.99 0 1.89-.09 2.88-.09h.18c18.18-1.53 30.87-16.56 30.87-35.37.18-16.02-10.35-29.52-24.84-34.11z"/><path d="m222.55 134.52c1.35-4.41.81-8.91-1.53-12.6-2.16-3.42-5.22-5.13-7.2-5.4h-.63c-.36 0-.63 0-.81.09-1.26.27-2.16.99-2.88 2.16-2.34 3.87-2.16 12.33.27 20.97 0 .09 2.34 8.73 3.33 12.42.54-.9 1.26-1.98 2.07-3.24 2.34-3.69 5.58-8.64 7.38-14.4z"/><path d="m229.93 215.34c1.62-.63 4.23-2.43 6.3-5.04 4.86-5.58 5.85-14.04 2.52-21.51-2.7-5.94-7.47-9.45-12.78-9.45-.63 0-1.35.09-1.98.18-.18 0-2.25.45-3.42.99 3.24 12.24 6.57 25.02 9.18 34.92 0 0 .09 0 .18-.09z"/></g></svg>

<?xml version="1.0" encoding="UTF-8" standalone="no"?>
<!DOCTYPE svg PUBLIC "-//W3C//DTD SVG 1.1//EN" "http://www.w3.org/Graphics/SVG/1.1/DTD/svg11.dtd">
<svg width="100%" height="100%" viewBox="0 0 560 400" version="1.1" xmlns="http://www.w3.org/2000/svg" xmlns:xlink="http://www.w3.org/1999/xlink" xml:space="preserve" xmlns:serif="http://www.serif.com/" style="fill-rule:evenodd;clip-rule:evenodd;stroke-linejoin:round;stroke-miterlimit:1.41421;">
    <g transform="matrix(2.02384,0,0,2.02384,-173.139,-140.004)">
        <path d="M202.84,184.2C200.86,188.07 198.7,192.39 198.61,197.61C198.61,197.79 197.71,211.2 211.12,216.15C215.26,217.68 220.48,217.86 225.97,216.69C225.97,216.69 226.87,216.51 227.41,216.33C224.8,206.52 221.56,193.83 218.32,181.68C214.63,184.02 212.2,187.71 211.12,192.39C210.76,193.92 210.4,198.51 212.47,201.75L212.65,202.11L210.13,202.74L210.04,202.56C207.97,198.78 208.24,193.92 208.69,191.94C209.86,186.36 213.1,181.86 217.6,179.25L214.09,166.11C209.59,173.04 204.1,181.5 202.84,183.93L202.84,184.2L202.84,184.2Z" style="fill:rgb(229,46,38);fill-rule:nonzero;"/>
        <path d="M248.47,164.13C259.81,159.09 267.64,147.75 267.64,134.61C267.64,116.79 253.15,102.3 235.33,102.3L174.49,102.3L174.49,233.7L231.91,233.7C231.82,233.43 231.46,231.9 230.83,229.47C230.11,226.86 229.21,223.17 228.04,218.76C225.25,219.48 222.37,219.84 219.49,219.84C216.25,219.84 213.19,219.39 210.31,218.4C204.91,216.6 197.98,212.37 195.28,201.93L195.28,201.84C193.39,194.37 193.84,186.99 196.54,180.33C199.06,174.21 205.81,163.59 209.86,157.29C210.4,156.48 210.85,155.76 211.3,155.04C209.41,147.93 207.43,140.46 207.34,140.46C205.27,133.26 204.01,123 207.25,117.51C208.33,115.71 209.86,114.63 211.66,114.18C212.02,114.09 212.47,114.09 212.92,114.09C213.91,114.09 214.9,114.27 215.89,114.63C220.03,116.16 225.34,120.03 227.5,129.75C229.03,136.95 226.51,144.6 224.08,149.82C221.47,155.4 218.5,159.45 218.41,159.45C218.41,159.45 217.42,160.98 215.89,163.32L215.98,163.77L219.76,178.08C220.75,177.63 221.83,177.36 222.82,177.09C224.44,176.73 226.06,176.55 227.77,176.55C234.16,176.55 240.28,179.34 243.79,183.75C245.14,185.46 246.13,187.35 246.76,189.33C248.47,193.56 248.29,198.42 246.31,203.28C244.06,208.68 240.37,212.82 235.33,215.61C233.89,216.51 232.09,217.14 230.11,217.86C232.09,225.33 234.25,233.61 234.25,233.7L239.38,233.7C240.37,233.7 241.27,233.61 242.26,233.61L242.44,233.61C260.62,232.08 273.31,217.05 273.31,198.24C273.49,182.22 262.96,168.72 248.47,164.13Z" style="fill:rgb(229,46,38);fill-rule:nonzero;"/>
        <path d="M222.55,134.52C223.9,130.11 223.36,125.61 221.02,121.92C218.86,118.5 215.8,116.79 213.82,116.52L213.19,116.52C212.83,116.52 212.56,116.52 212.38,116.61C211.12,116.88 210.22,117.6 209.5,118.77C207.16,122.64 207.34,131.1 209.77,139.74C209.77,139.83 212.11,148.47 213.1,152.16C213.64,151.26 214.36,150.18 215.17,148.92C217.51,145.23 220.75,140.28 222.55,134.52Z" style="fill:rgb(229,46,38);fill-rule:nonzero;"/>
        <path d="M229.93,215.34C231.55,214.71 234.16,212.91 236.23,210.3C241.09,204.72 242.08,196.26 238.75,188.79C236.05,182.85 231.28,179.34 225.97,179.34C225.34,179.34 224.62,179.43 223.99,179.52C223.81,179.52 221.74,179.97 220.57,180.51C223.81,192.75 227.14,205.53 229.75,215.43C229.75,215.43 229.84,215.43 229.93,215.34Z" style="fill:rgb(229,46,38);fill-rule:nonzero;"/>
    </g>
</svg>
